X:920
T:Dunrobin Castle
T:Jimmy's Return
R:reel
C:Archibald Allan (1794-1831), Scotland
H:A version of "The Forfar Hunt"
Z:id:hn-reel-920
M:C|
L:1/8
K:Bm
f2Bc dfed | (3cBA ce aece | f2Bc dfed | cdec dB~B2 |
f2Bc dfed | cAce aecA | BcdB cdeg | fdec dB~B2 :|
|: f2ba faed | cAce aece | f2ba faed | cdec dB~B2 |
f2ba faed | cAce aecA | BcdB cdeg | fdec dB~B2 :|

